X: 1
T: Kh'sidim Tantz   [A]
R: khusidl
S: Jon Cannon 2015
Z: 2016 John Chambers <jc:trillian.mit.edu>
L: 1/8
M: 4/4
K: Aphr^c
"A"|:::\
"A"Ac ce ed de | ec cd "Gm"dBBd |\
"A"c3 B "Gm"AG AB |1,3 "A"c3 B "Gm"cB AG :|2 A4 z4 :|4 A4 z2 ||
"B"|::: a2 |\
"Gm"g2 ba gf ed | ef gf e3 d |\
"A"cd ef "Gm"gf ed | "A"cd "Gm"Bc [1-3 "A"A2 :|4 "A"A4 ||
"C"|:::\
"Gm"G2 AB G2AB | G2AB G4 |\
^FG AB cd cB | "A"A4 z4 :::|
P: alternate C:
|:::\
"Gm"G2 AB G2AB | G2AB G4 |\
^FG AB cd cB |1,3 "A"c3 B cB A2 :|2,4 "A"A4 z4 :|
